src/assets/img/sass.svg

<svg width="35" height="35" viewBox="0 0 35 35" fill="none" xmlns="http://www.w3.org/2000/svg">
<g id="scss.67cd0525916c4cdea4eb3abd8ae11137.svg">
<path id="Vector" fill-rule="evenodd" clip-rule="evenodd" d="M17.05 2.625C19.992 2.625 22.8679 3.4974 25.3141 5.13189C27.7603 6.76638 29.6668 9.08953 30.7927 11.8076C31.9185 14.5256 32.2131 17.5165 31.6392 20.402C31.0652 23.2874 29.6485 25.9379 27.5682 28.0182C25.4879 30.0985 22.8374 31.5152 19.952 32.0892C17.0665 32.6631 14.0756 32.3686 11.3576 31.2427C8.63952 30.1169 6.31636 28.2103 4.68188 25.7641C3.04739 23.3179 2.17499 20.442 2.17499 17.5C2.17499 13.5549 3.74217 9.77139 6.53177 6.98179C9.32138 4.19218 13.1049 2.625 17.05 2.625Z" fill="#CC6699"/>
<path id="Vector_2" d="M26.3809 8.99153C25.7072 6.35016 21.3266 5.48528 17.1807 6.95366C14.5843 7.82613 12.1854 9.20211 10.1214 11.0028C7.83812 13.1385 7.47368 14.9978 7.62349 15.7745C8.15474 18.5158 11.9086 20.3072 13.4524 21.6363V21.6438C12.9976 21.868 9.66562 23.5563 8.88362 25.2775C8.06124 27.0965 9.01431 28.4013 9.64649 28.5766C10.5956 28.8051 11.5925 28.7307 12.4973 28.3639C13.402 27.9971 14.1692 27.3563 14.6912 26.5313C15.1227 25.8629 15.3926 25.1032 15.4796 24.3125C15.5667 23.5217 15.4685 22.7215 15.1927 21.9753C15.9364 21.7863 16.7093 21.742 17.4697 21.8446C20.0792 22.1495 20.5913 23.7783 20.4936 24.4605C20.4476 24.7033 20.3499 24.9333 20.207 25.135C20.0642 25.3367 19.8796 25.5052 19.6659 25.6292C19.4831 25.7429 19.4268 25.7812 19.4427 25.8662C19.4651 25.9883 19.549 25.9841 19.7052 25.9575C20.0973 25.834 20.4429 25.5946 20.6962 25.2709C20.9496 24.9471 21.099 24.5542 21.1247 24.1438C21.1874 22.5501 19.6563 20.7587 16.9448 20.8044C16.1573 20.7819 15.3714 20.8896 14.619 21.1232C14.5818 21.0807 14.5436 21.0382 14.5042 20.9957C12.8276 19.2075 9.72937 17.942 9.86006 15.5376C9.90787 14.6632 10.2117 12.3618 15.8101 9.56953C20.4001 7.28197 24.0742 7.91203 24.7096 9.30709C25.6169 11.3003 22.7461 15.0032 17.9797 15.5376C17.4529 15.6445 16.9087 15.6315 16.3876 15.4994C15.8666 15.3674 15.3819 15.1197 14.9696 14.7747C14.7189 14.4985 14.6817 14.4868 14.5882 14.5378C14.4362 14.6217 14.5329 14.8661 14.5882 15.0106C14.7707 15.3395 15.017 15.6287 15.3128 15.8611C15.6086 16.0936 15.9478 16.2646 16.3105 16.3642C18.1845 16.7714 20.1392 16.5781 21.8971 15.8117C24.7882 14.6972 27.0428 11.5893 26.3809 8.99153ZM14.0941 22.4545C14.3051 23.182 14.2944 23.9559 14.0633 24.6772C14.0385 24.7523 14.0112 24.8267 13.9815 24.9003C13.9517 24.974 13.9195 25.0448 13.8848 25.1128C13.706 25.4787 13.4744 25.8163 13.1974 26.1148C12.3336 27.0572 11.1255 27.4142 10.6081 27.1135C10.0492 26.7895 10.3286 25.4603 11.3306 24.401C12.1004 23.6397 12.988 23.0075 13.9592 22.5288L14.0941 22.4545Z" fill="white"/>
</g>
</svg>

<svg xmlns="http://www.w3.org/2000/svg" width="35" height="35" fill="none"><path fill="#C69" fill-rule="evenodd" d="M17.05 2.625a14.875 14.875 0 1 1 0 29.75 14.875 14.875 0 0 1 0-29.75Z" clip-rule="evenodd"/><path fill="#fff" d="M26.38 8.992c-.673-2.642-5.053-3.507-9.2-2.038a20.832 20.832 0 0 0-7.059 4.049c-2.283 2.136-2.647 3.995-2.498 4.771.532 2.742 4.286 4.533 5.83 5.862v.008c-.455.224-3.787 1.912-4.57 3.634-.822 1.819.131 3.123.763 3.299a4.675 4.675 0 0 0 5.045-2.046 5.124 5.124 0 0 0 .502-4.556 5.991 5.991 0 0 1 2.277-.13c2.61.305 3.121 1.933 3.024 2.616a1.72 1.72 0 0 1-.828 1.168c-.183.114-.24.152-.223.237.022.122.106.118.262.091a2.035 2.035 0 0 0 1.42-1.813c.062-1.594-1.469-3.385-4.18-3.34a7.155 7.155 0 0 0-2.326.32 6.001 6.001 0 0 0-.115-.128c-1.676-1.788-4.775-3.054-4.644-5.458.048-.875.352-3.176 5.95-5.968 4.59-2.288 8.264-1.658 8.9-.263.907 1.993-1.964 5.696-6.73 6.23a3.581 3.581 0 0 1-3.01-.762c-.251-.277-.288-.288-.382-.237-.152.084-.055.328 0 .473a2.824 2.824 0 0 0 1.723 1.353 9.129 9.129 0 0 0 5.586-.552c2.891-1.115 5.146-4.223 4.484-6.82ZM14.095 22.454a3.808 3.808 0 0 1-.112 2.446 4.155 4.155 0 0 1-.784 1.214c-.864.943-2.072 1.3-2.59 1-.559-.325-.28-1.654.723-2.713a10.069 10.069 0 0 1 2.628-1.872l.135-.075Z"/></svg>
